X: 37977
T: Sparrow's Tail, The
R: slide
M: 12/8
K: Aminor
|cBA d2B c2B A2B|cBc d2c B3 BAB|cBA d2B c2B A2d|1 cBA B2c A3 A2B:|2 cBA B2c A3 A2e||
e2f e2d c2B A2B|cBc d2c B3 B2e|e2f e2d c2B A2d|cBA B2c A3 A2e|
e2f e2d c2B A2B|cBc d2c B3 BAB|c2A d2B c2B A2d|cBA B2c A3 A2e|
aAA gAA fAA e2d|cBA B2c B3 B2e|aAA gAA fAA e2d|cBA B2c A3 A2e|
aAA gAA fAA e2d|cBA B2c B3 B2e|e2f e2d c2B A2d|cBA B2c A3 A2B||

